!!!Genre:	Khosid
!!!Mode:	Minor
!!!Listening/dance:	dance
!!!One_Mode:	no
**kern
*I"P1
*clefG2
*k[b-e-]
*g:
*M2/4
*>A
=1
(8gTL
8dJ)
(8b-TL
8gJ)
=2
8gTL
8dJ
8b-TL
8gJ
=3
16gLL
16aJ
8b-J
16aLL
16b-J
8ccJ
=4
16ddLL
16ccJ
8b-J
16b-LL
16aJ
8gJ
=5
8gTL
8dJ
8b-TL
8gJ
=6
8gTL
8dJ
8b-TL
8gJ
=7
16gLL
16aJ
8b-J
16aLL
16b-J
8ccJ
=8
16ddLL
16ccJ
8b-J
16b-LL
16aJ
8gJ
=9
2g
=
4.g
=10||
*>B
*>bM
*B-:
!LO:TX:a:i:t=Bb-major
8f
=11
8.b-L
16ccJk
8ddL
8ddJ
=12
8ddL
8dd
8dd
8ddJ
=13
16ddLL
16ee-J
8ffJ
(8qff/
16ee-LL)
16ddJ
8ee-J
=14
16ddLL
16ccJ
8ddJ
(8qdd/
16ccLL)
16b-J
8ccJ
=15
4.b-
8cc
=16
16ddLL
16ee-J
8ffJ
(8qff/
16ee-LL)
16ddJ
8ee-J
=17
16ddLL
16ccJ
8ddJ
(8qdd/
16ccLL)
16b-J
8ccJ
=18
4.b-
8f
=19
8.b-L
16ccJk
8ddL
8ddJ
=20
8ddL
(8qee-/
8ddJ)
(8qee-/
4dd)
=21
8.b-L
16ccJk
8ddL
8ddJ
=22
8gL
(8qa/
8gJ)
4f
*>eM
*g:
!LO:TX:a:i:t=G-minor
=23
16b-LL
16aJ
8b-J
(8qdd/
16ccLL)
16b-J
8ccJ
=24
16ddLL
16ccJ
8b-J
16b-LL
16aJ
8gJ
=25
2g
=26
2g
==
*-
